X:139
T:RVW2/2/139 The Irish Convict
C:Mr. Blake (?), Salisbury, Wiltshire, 1 September 1904
L:1/8
Q:1/4=90
M:3/4
I:linebreak $
K:G
"^(Editorial suggestion " GG | Bd B2 (EF) | GG G2 d2 | ef"^(a)" (g>f) ed | ee e2 d2 |$ 
w: When the|sun was high and _|clouds ad- vance the|con- vict came _ from the|Isle- of- France a-|
e>f (ge) fe | dd e2 GG | Bd (ed) B>A | GG G2 ||$ GG | Bd B2 EF | GG G2 d2 | ef"^(a) var." g>e fe | 
w: round his leg _ was a|ring and chain but his|coun- try was _ of the|sham- rock green.|||||
dd e2 d2 |$ e>f ge fe | dd e2 GG | Bd ed B>A | GG G2 |] 
w: |||||



